symbolic/24x24/mimetypes/application-vnd.oasis.opendocument.database.svg

<svg xmlns="http://www.w3.org/2000/svg" width="24" height="24" version="1">
 <path style="opacity:0.2" d="m 5,2.5 c -0.554,0 -1,0.446 -1,1 v 18 c 0,0.554 0.446,1 1,1 h 14 c 0.554,0 1,-0.446 1,-1 V 8.5 L 14.5,8 14,2.5 Z"/>
 <path fill="#e81d62" d="m5 2c-0.554 0-1 0.446-1 1v18c0 0.554 0.446 1 1 1h14c0.554 0 1-0.446 1-1v-13l-5.5-0.5-0.5-5.5z"/>
 <path fill="#fff" opacity=".2" d="m5 2c-0.554 0-1 0.446-1 1v0.5c0-0.554 0.446-1 1-1h9l5.5 5.5h0.5l-6-6z"/>
 <path style="opacity:0.2" d="m 14,2.5 v 5 c 0,0.5523 0.44772,1 1,1 h 5 z"/>
 <path fill="#f0729d" d="m14 2v5c0 0.5523 0.44772 1 1 1h5l-6-6z"/>
 <path style="opacity:0.2" d="m 11.999777,10.5 c -1.677844,0 -3.1113605,0.51755 -3.7051543,1.25 -0.04986,0.0615 -0.094069,0.12412 -0.1316951,0.18848 -0.035752,0.06116 -0.066322,0.12309 -0.090395,0.18652 a 3.9997657,2 0 0 0 -0.016742,0.0586 c -0.013256,0.043 -0.028227,0.086 -0.036341,0.129 a 3.9997657,2 0 0 0 -0.019427,0.187 c 2.199e-4,0.06499 0.00729,0.12989 0.02009,0.19434 a 3.9997657,2 0 0 0 0.054683,0.1875 3.9997657,2 0 0 0 0.092629,0.18652 3.9997657,2 0 0 0 0.1274211,0.1815 3.9997657,2 0 0 0 3.7049253,1.25 3.9997657,2 0 0 0 3.705155,-1.25 3.9997657,2 0 0 0 0.0011,-0.0019 3.9997657,2 0 0 0 0.108256,-0.1543 c 0.0064,-0.01014 0.01407,-0.02009 0.02009,-0.03028 a 3.9997657,2 0 0 0 0.06585,-0.13281 c 0.0094,-0.02093 0.02105,-0.04144 0.02902,-0.0625 a 3.9997657,2 0 0 0 0.03236,-0.11133 c 0.0077,-0.02933 0.0161,-0.05839 0.0212,-0.08789 a 3.9997657,2 0 0 0 0.01657,-0.1685 3.9997657,2 0 0 0 -0.02114,-0.199 c -0.03828,-0.1935 -0.133135,-0.378 -0.273698,-0.551 -0.59368,-0.7325 -2.02731,-1.25 -3.704926,-1.25 z M 8.2946227,14.25 A 3.9997657,2 0 0 0 8,15 a 3.9997657,2 0 0 0 3.999766,2 3.9997657,2 0 0 0 3.999765,-2 3.9997657,2 0 0 0 -0.294622,-0.75 3.9997657,2 0 0 1 -3.705155,1.25 3.9997657,2 0 0 1 -3.7051541,-1.25 z m 0,2.5 A 3.9997657,2 0 0 0 8.0004685,17.5 3.9997657,2 0 0 0 12.000234,19.5 3.9997657,2 0 0 0 16,17.5 3.9997657,2 0 0 0 15.705377,16.75 3.9997657,2 0 0 1 12.000223,18 3.9997657,2 0 0 1 8.2950684,16.75 Z"/>
 <path style="fill:#ffffff" d="m 11.999777,10 c -1.677844,0 -3.1113605,0.51755 -3.7051543,1.25 -0.04986,0.0615 -0.094069,0.12412 -0.1316951,0.18848 -0.035752,0.06116 -0.066322,0.12309 -0.090395,0.18652 a 3.9997657,2 0 0 0 -0.016742,0.0586 c -0.013256,0.043 -0.028227,0.086 -0.036341,0.129 a 3.9997657,2 0 0 0 -0.019427,0.187 c 2.199e-4,0.06499 0.00729,0.12989 0.02009,0.19434 a 3.9997657,2 0 0 0 0.054683,0.1875 3.9997657,2 0 0 0 0.092629,0.18652 3.9997657,2 0 0 0 0.1274211,0.1815 3.9997657,2 0 0 0 3.7049253,1.25 3.9997657,2 0 0 0 3.705155,-1.25 3.9997657,2 0 0 0 0.0011,-0.0019 3.9997657,2 0 0 0 0.108256,-0.1543 c 0.0064,-0.01014 0.01407,-0.02009 0.02009,-0.03028 a 3.9997657,2 0 0 0 0.06585,-0.13281 c 0.0094,-0.02093 0.02105,-0.04144 0.02902,-0.0625 a 3.9997657,2 0 0 0 0.03236,-0.11133 c 0.0077,-0.02933 0.0161,-0.05839 0.0212,-0.08789 a 3.9997657,2 0 0 0 0.01657,-0.1685 3.9997657,2 0 0 0 -0.02114,-0.199 c -0.03828,-0.1935 -0.133135,-0.378 -0.273698,-0.551 -0.59368,-0.7325 -2.02731,-1.25 -3.704926,-1.25 z M 8.2946227,13.75 A 3.9997657,2 0 0 0 8,14.5 a 3.9997657,2 0 0 0 3.999766,2 3.9997657,2 0 0 0 3.999765,-2 A 3.9997657,2 0 0 0 15.704909,13.75 3.9997657,2 0 0 1 11.999754,15 3.9997657,2 0 0 1 8.2945999,13.75 Z m 0,2.5 A 3.9997657,2 0 0 0 8.0004685,17 3.9997657,2 0 0 0 12.000234,19 3.9997657,2 0 0 0 16,17 3.9997657,2 0 0 0 15.705377,16.25 3.9997657,2 0 0 1 12.000223,17.5 3.9997657,2 0 0 1 8.2950684,16.25 Z"/>
</svg>

<svg xmlns="http://www.w3.org/2000/svg" width="24" height="24" version="1"><path style="opacity:.2" d="M5 2.5c-.554 0-1 .446-1 1v18c0 .554.446 1 1 1h14c.554 0 1-.446 1-1v-13L14.5 8 14 2.5z"/><path fill="#e81d62" d="M5 2c-.554 0-1 .446-1 1v18c0 .554.446 1 1 1h14c.554 0 1-.446 1-1V8l-5.5-.5L14 2z"/><path fill="#fff" opacity=".2" d="M5 2c-.554 0-1 .446-1 1v.5c0-.554.446-1 1-1h9L19.5 8h.5l-6-6z"/><path style="opacity:.2" d="M14 2.5v5a1 1 0 0 0 1 1h5z"/><path fill="#f0729d" d="M14 2v5a1 1 0 0 0 1 1h5l-6-6z"/><path style="opacity:.2" d="M12 10.5c-1.678 0-3.112.518-3.705 1.25-.05.061-.094.124-.132.188a1.247 1.247 0 0 0-.09.187 4 2 0 0 0-.017.059c-.013.043-.028.086-.037.129A4 2 0 0 0 8 12.5c0 .065.007.13.02.194a4 2 0 0 0 .055.187 4 2 0 0 0 .092.187 4 2 0 0 0 .128.181A4 2 0 0 0 12 14.5a4 2 0 0 0 3.705-1.25 4 2 0 0 0 .001-.001 4 2 0 0 0 .108-.155l.02-.03a4 2 0 0 0 .066-.133c.01-.02.021-.041.03-.062a4 2 0 0 0 .032-.112c.007-.029.016-.058.02-.088A4 2 0 0 0 16 12.5a4 2 0 0 0-.02-.199 1.27 1.27 0 0 0-.274-.551c-.594-.733-2.028-1.25-3.705-1.25zm-3.705 3.75A4 2 0 0 0 8 15a4 2 0 0 0 4 2 4 2 0 0 0 4-2 4 2 0 0 0-.295-.75A4 2 0 0 1 12 15.5a4 2 0 0 1-3.705-1.25zm0 2.5A4 2 0 0 0 8 17.5a4 2 0 0 0 4 2 4 2 0 0 0 4-2 4 2 0 0 0-.295-.75A4 2 0 0 1 12 18a4 2 0 0 1-3.705-1.25z"/><path style="fill:#fff" d="M12 10c-1.678 0-3.112.518-3.705 1.25-.05.061-.094.124-.132.188a1.247 1.247 0 0 0-.09.187 4 2 0 0 0-.017.059c-.013.043-.028.086-.037.129A4 2 0 0 0 8 12c0 .065.007.13.02.194a4 2 0 0 0 .055.187 4 2 0 0 0 .092.187 4 2 0 0 0 .128.181A4 2 0 0 0 12 14a4 2 0 0 0 3.705-1.25 4 2 0 0 0 .001-.001 4 2 0 0 0 .108-.155l.02-.03a4 2 0 0 0 .066-.133c.01-.02.021-.041.03-.062a4 2 0 0 0 .032-.112c.007-.029.016-.058.02-.088A4 2 0 0 0 16 12a4 2 0 0 0-.02-.199 1.27 1.27 0 0 0-.274-.551C15.11 10.517 13.677 10 12 10zm-3.705 3.75A4 2 0 0 0 8 14.5a4 2 0 0 0 4 2 4 2 0 0 0 4-2 4 2 0 0 0-.295-.75A4 2 0 0 1 12 15a4 2 0 0 1-3.705-1.25zm0 2.5A4 2 0 0 0 8 17a4 2 0 0 0 4 2 4 2 0 0 0 4-2 4 2 0 0 0-.295-.75A4 2 0 0 1 12 17.5a4 2 0 0 1-3.705-1.25z"/></svg>
